X: 3
T: The Square Of Crossmaglen
R: reel
M: 4/4
L: 1/8
K: Ador
|:A3B BcAB|cABA GEBc|dggf gedB|G~D3 BcdG|
EAAB BcBA|E~=F3 EFAB|c3d e2dB|1 cdBG E/F/G BG:|2 cdBG e/f/g bg||
|:~a3e B/c/d eg|~a3e B/c/d ec|d~g3 g~b3|g~d3 Bcde|
gaae cde^g|ac'ba gede|AG A/B/c ^de=dB|1 cdBG e/f/g bg:|2 c2BG EABG||

